X: 39458
T: Tarbolton, The
R: reel
M: 4/4
K: Dmajor
a2 ge (3fed ed|=cA GE FD DE|~F3G AB =cA|AA AA AA dA|
EF FG AB =cA|GB AG FD D2|zE FG AB =cB|Ad dc de fg|
af ge fd ed|=cA GE FD Dg|fd ed fd e=c|(3A=cA dc Ad de|
(3=fed ed (3fed ed|=cA GE FD Dg|fd de fd e=c|AB =cA de fg|
(3agf (3gfe (3fed (3ed=c|d=c AG FD Dg|(3fgf eg fd e=c|AB =cA AA de|
(3=fed ed (3fed ed|=cA GE FD (3DDD|fd de fd e=c|A=c2A de fg|
(3agf ge fd ed|=cA GE FD De|
f2 fd e=c AG|FD (3EFG Ad =cA|GG (3EFG Ad de|fd ed (3Bcd eg|
fd (3ddd fd AG|1 FD (3DDD Ad =cA|GG (3EFG Ad dc|
(3A=cA GE FD De:|2 f2 fd e=c AG|(3FED (3EFG Ad =cA||
GG (3EFG Ad de|fd ed (3Bcd eg|fd (3ddd fd AG|FD (3DDD Ad =cA|
GG (3EFG Ad dc|(3A=cA GE FD Df|a2 af de fg|a2 af de fa|
b2 ab ef gb|ef gb ef gb|a2 af de fg|a2 af de fa|
ag gf fe fd|(3Bcd AG FD Df|a2 af de fg|a2 af de fa|
b2 ab ef gb|ef gb ef gb|a2 af de fg|a2 af de fa|
ag gf fe fd|(3Bcd AG FD (3eee|=f3d e=c AG|FD (3EFG Ad =cA|
GG (3EFG Ad de|fd ed (3Bcd eg|fd (3ddd fd AG|FD (3DDD Ad =cA|
GG (3EFG Ad dc|(3A=cA GE FD De|f2 fd e=c AG|(3FED (3EFG Ad =cA|
GG (3EFG Ad de|fd ed (3Bcd eg|fd ed fd AG|FD (3DDD Ad =cA|
GG (3EFG Ad dc|AB GE FD Df|a2 af de fg|a2 af de fa|
b2 ab ef gb|ef gb ef gb|a2 af de fg|a2 af de fa|
ag gf fe (3fed|(3Bcd AG FD DD|a2 ~a3 a a2|aa fa de fa|
b2 ab ef gb|ef gb ef gb|a2 af de fg|ab fa de fa|
b^g af =ge fd|(3B=cd AG FD DA|Be eB e2 BA|GB Af gf eg|
fd eA dB AF|GB AG FD DA|B3d ef ge|fd df ed BA|
GB AG (3EFG A=c|(3BAG GF GE EE|Be ee e2 BA|GB Af gf eg|
fd eA dB AF|GB AG FD DA|B3d ef ge|fd df ed BA|
GB AG (3EFG A=c|(3BAG GF GE EE|gf ef ge be|ge be gf ef|
d2 fd Ad fd|Ad AG FD EF|G3A F3A|e3f gf ed|
=c3B AB FA|(3B=cd (3AGF GE EE|gf ef ge be|ge be gf e^g|
^ga (3=gfe (3fed (3edc|dB AG FD EF|GB AG FA GF|ge ef gf ed|
ed =cB AB FA|(3B=cd (3AGF GE EB|e2 ee e2 BA|GB Af gf eg|
fd eA dB AF|GB AG FD DA|BB Bd ef ge|fd df ed BA|
GB AG (3EFG A=c|(3BAG GF GE EE|Be eB ed BA|GB Af gf eg|
fd eA dB AF|GB AG FD DA|Be eB ef ge|fd df ed BA|GB AG (3EFG A=c||

